src/assets/icons/two-drops.svg

<?xml version="1.0" encoding="UTF-8"?>
<svg width="78px" height="70px" viewBox="0 0 78 70" version="1.1" xmlns="http://www.w3.org/2000/svg" xmlns:xlink="http://www.w3.org/1999/xlink">
    <!-- Generator: Sketch 57.1 (83088) - https://sketch.com -->
    <title>Icon/Big/TwoDrops</title>
    <desc>Created with Sketch.</desc>
    <g id="assets" stroke="none" stroke-width="1" fill="none" fill-rule="evenodd">
        <g id="styleguide" transform="translate(-270.000000, -845.000000)" fill="#FFFFFF">
            <g id="Icon/Big/TwoDrops" transform="translate(270.000000, 845.000000)">
                <path d="M50.1111951,0.254079021 C51.2498049,1.30785426 78,26.2361657 78,41.6218517 C78,57.2695627 65.1984878,70 49.4634146,70 C48.5873415,70 47.6979512,69.9593247 46.821878,69.8798658 C46.2987073,69.831623 45.9134634,69.371897 45.9619756,68.8516309 C46.0095366,68.3313649 46.4689756,67.9482599 46.9959512,67.9955568 C47.814,68.0702859 48.6444146,68.1081234 49.4634146,68.1081234 C64.1492927,68.1081234 76.097561,56.2261928 76.097561,41.6218517 C76.097561,28.3285811 53.6002683,6.20686859 49.4624634,2.25190066 C48.3628537,3.30000027 45.9648293,5.62984624 43.0617073,8.71265909 C42.7011951,9.09292627 42.0990732,9.11279098 41.7166829,8.75617225 C41.3333415,8.39955352 41.3133659,7.80077459 41.6729268,7.41956146 C45.708,3.13540701 48.7851951,0.282457169 48.8156341,0.254079021 C49.1809024,-0.0845668819 49.7459268,-0.0845668819 50.1111951,0.254079021 Z M29.1843659,0.253984427 C30.3229756,1.30775967 57.0731707,26.2360711 57.0731707,41.6217571 C57.0731707,57.2694681 44.2716585,69.9999054 28.5365854,69.9999054 C12.8015122,69.9999054 9.59232693e-14,57.2694681 9.59232693e-14,41.6217571 C9.59232693e-14,26.2360711 26.7501951,1.30775967 27.8888049,0.253984427 C28.2540732,-0.0846614757 28.8190976,-0.0846614757 29.1843659,0.253984427 Z M28.5365854,2.25180607 C24.396878,6.20961181 1.90243902,28.3294325 1.90243902,41.6217571 C1.90243902,56.2270441 13.8507073,68.1080289 28.5365854,68.1080289 C43.2224634,68.1080289 55.1707317,56.2270441 55.1707317,41.6217571 C55.1707317,28.3294325 32.6762927,6.20961181 28.5365854,2.25180607 Z" id="Combined-Shape"></path>
            </g>
        </g>
    </g>
</svg>

<svg width="78" height="70" xmlns="http://www.w3.org/2000/svg"><path d="M50.111.254C51.25 1.308 78 26.236 78 41.622 78 57.27 65.198 70 49.463 70c-.876 0-1.765-.04-2.641-.12a.947.947 0 11.174-1.884 27.24 27.24 0 002.467.112c14.686 0 26.635-11.882 26.635-26.486 0-13.293-22.498-35.415-26.636-39.37a173.671 173.671 0 00-6.4 6.46c-.36.38-.963.4-1.345.044a.941.941 0 01-.044-1.336C45.708 3.135 48.785.282 48.816.254a.953.953 0 011.295 0zm-20.927 0c1.139 1.054 27.89 25.982 27.89 41.368C57.073 57.269 44.271 70 28.536 70S0 57.27 0 41.622C0 26.236 26.75 1.308 27.889.254a.953.953 0 011.295 0zm-.647 1.998C24.397 6.21 1.902 28.329 1.902 41.622c0 14.605 11.949 26.486 26.635 26.486 14.685 0 26.634-11.881 26.634-26.486 0-13.293-22.495-35.412-26.634-39.37z" fill="#FFF" fill-rule="evenodd"/></svg>
